X:21
T:Crawdad Song
C:Traditional
R: Reel
M:4/4
L:1/4
K:D
| "D" D D/2D/2 D D|F D/2D/2 (B, A,)|B,-, D3|
w:You get a line and I'll get a po-le Hon-ey,
w:Get up old man you slept too _la-te Hon-ey,
w:Yon-der come~a man with~a sack on his ba-ck Hon-ey,
w:The man fall down and he bust his sa-ck Hon-ey,
w:What~you gon-na do when~the lake goes _dr-y Hon-ey,
w:What~you gon-na do when~the craw-fish _di-e Hon-ey,
w:Craw-dad sit-tin' on~the ri-ver _ba-nk, Hon-ey,
w:Look at the craw-dad crawl-'in _ro-und Hon-ey,
|F A/2A/2 A A|B A/2A/2 A2| "A" A-E3|
w:You get a line and I'll get a pole Ba-be,
w:Get up old man you slept too _la-te Hon-ey,
w:Yon-der come~a man with~a sack on his back Ba-be,
w:The man fall down and he bust his sack Ba-be,
w:What~you gon-na do when~the lake goes _dry Ba-be,
w:What~you gon-na do when~the craw-fish _die Ba-be,
w:Craw-dad _sittin' on~the ri-ver _bank, Ba-be,
w:Look at the craw-dad crawl-'in _round, Ba-be,
|"D"F A/2A/2 A A|B A/2A/2 F2|"G"E D D D/2D/2|
w:You get a line and I'll get a pole, we'll go down to the
w:Get up _old man you slept too late, craw-dad man done--
w:Yon-der come~a man with~a sack on his back, pack'in all the craw-dads
w:The man fall down and he bust his sack, hey look~at them craw-dads
w:What~you gon-na do when~the lake goes _dry, sit~on the~bank and watch the,
w:What~you gon-na do when~the craw-fish _die, sit on~the bank un-_,
w:Craw-dad sittin' on~the river bank, pick-in' his teeth with a two
w:Look at the craw-dad crawl-'in _round, he's the mayor of
|F D D2|"D"F A3| "A"F2- E D|"D"D4|
w:craw-dad hole, Hon-ey Ba--by mine!
w:passed your gate, Hon-ey Ba--by mine!
w:he can pack, Hon-ey Ba--by mine!
w:back in back, Hon-ey Ba--by mine!
w:craw-dads die, Hon-ey Ba--by mine!
w:til I cry, Hon-ey Ba--by mine!
w:by four plank, Hon-ey Ba--by mine!
w:craw-dad town, Hon-ey Ba--by mine!


